!!!OTL: 63f. Mozart (?), Duo for Two Horns, K. 487 no. 5 (complete)
!!!OMD: Larghetto
**kern	**kern
*staff2	*staff1
*Icor	*Icor
*>[A,A,B,B]	*>[A,A,B,B]
*>norep[A,B]	*>norep[A,B]
*>A	*>A
*clefG2	*clefG2
*k[]	*k[]
*C:	*C:
*M2/2	*M2/2
*met(C|)	*met(C|)
*MM40	*MM40
=1-	=1-
4cc\	4ee\
4r	4r
(8cc/L	(8ee\L
8g/)	8dd\)
(8g/	(8dd\
8e/J)	8cc\J)
=2	=2
4e/	4cc\
4r	8r
.	8g'/
8r	8cc'\L
8g'\L	8dd'\
8cc'\	8ee'\
8dd'\J	8ff'\J
=3	=3
(8ee\L	(8gg\L
8cc\)	8ee\)
(8ff\	(8aa\
8ee\J)	8gg\J)
(8ee\L	(8gg\L
8dd\)	8ff\)
(8dd\	(8ff\
8cc\J)	8ee\J)
=4	=4
8g'/L	(2ee\
(8g/	.
8f#/	.
8g/J)	.
4G/	4dd\)
4r	4r
=5	=5
4cc\	4ee\
8r	8r
8cc\	8ee\
(8cc/L	(8ee\L
8g/)	8dd\)
(8g/	(8dd\
8e/J)	8cc\J)
=6	=6
4e/	4cc\
4r	8r
.	8g'/
8r	8cc'\L
8g'\L	8dd'\
8cc'\	8ee'\
8dd'\J	8ff'\J
=7	=7
4ee\	(8gg\L
.	8ccc\)
(8cc\L	(8ee\
8ee\J)	8gg\J)
(8ee\L	(8gg\L
8dd\)	8ff\
8cc\	8ee\
8g\J	8dd\J)
=8	=8
(2g/	(2dd\
4e/)	4cc\)
4r	4r
=9:|!|:	=9:|!|:
*>B	*>B
4b\	2dd\
4g/	.
4cc\	2ee\
4g/	.
=10	=10
4dd\	8gg\L
.	8ff#\
4g/	8ffn\
.	8ee\J
4b\	4dd\
4g/	8r
.	8dd\
=11	=11
4.cc\	4ee\
.	4ee\
16b\LL	.
16cc\JJ	.
8dd\L	4ff#\
8cc\	.
8b\	4ff#\
8a\J	.
=12	=12
2g/	(2.gg\
2r	.
.	8ff#\L
.	8ffn\J)
=13	=13
4cc\	4ee\
4r	4r
(8cc/L	(8ee\L
8g/)	8dd\)
(8g/	(8dd\
8e/J)	8cc\J)
=14	=14
16e/LL	4cc\
16g/	.
16cc/	.
16ee/JJ	.
16cc/LL	8r
16g/	.
16e/	8g/
16g/JJ	.
4c/	16cc\LL
.	16dd\
.	16ee\
.	16ff\JJ
4r	16gg\LL
.	16aa\
.	16bb\
.	16ccc\JJ
=15	=15
4ee\	4gg\
(8cc\L	(8ee\L
8ee\J)	8gg\J)
(8ee\L	(8gg\L
8dd\)	8ff\
8cc\	8ee\
8g\J	8dd\J)
=16	=16
(2g/	(2dd\
4e/)	4cc\)
4r	4r
==:|!;	==:|!;
*-	*-
!!!hum2abc: -q -s 0.80
